svg/blobs-icons/no-decorations/baby-pacifier.svg

<svg xmlns="http://www.w3.org/2000/svg" xmlns:xlink="http://www.w3.org/1999/xlink" preserveAspectRatio="xMidYMid" width="215" height="217" viewBox="0 0 215 217"><defs><style>.cls-3{fill:#142a3b}.cls-4{fill:#ff3a2f}.cls-5{fill:#010101;opacity:.45}.cls-6{fill:#010101;opacity:.35}.cls-7{fill:#2476ff}.cls-8{fill:#fff}</style></defs><g id="group-89svg"><path d="M49.826 216.824C37.099 216.826 24.378 212.014 14.692 202.39 5.209 192.964-.015 180.411-.015 167.042-.014 153.843 5.114 141.476 14.425 132.223c10.56-10.492 21.636-15.36 33.871-14.787l12.261-12.185C61.972 103.843 64.258 103.85 65.67 105.267 67.076 106.683 67.069 108.971 65.655 110.377L51.047 124.892S49.379 124.75 49.379 124.75C38.726 123.836 28.968 127.962 19.522 137.352 11.585 145.237 7.215 155.782 7.213 167.042c0 11.43 4.466 22.162 12.576 30.22C36.356 213.723 63.325 213.716 79.903 197.239 88.975 188.224 93.273 177.527 92.331 166.304L92.19 164.626s14.057-13.97 14.057-13.97C107.663 149.248 109.948 149.254 111.36 150.673 112.767 152.089 112.76 154.377 111.344 155.783L99.645 167.408C100.224 180.195 95.183 192.249 85.001 202.368 75.302 212.006 62.562 216.824 49.826 216.824z" id="path-1" class="cls-3" fill-rule="evenodd"/><path d="M164.405 149.355S64.784 50.353 64.784 50.353C59.428 45.033 49.898 45.874 44.544 51.197 39.188 56.519 38.341 65.989 43.696 71.311L65.767 93.244s-10.545 10.478-10.545 10.478 56.236 55.884 56.236 55.884 10.544-10.478 10.544-10.478 21.316 21.183 21.316 21.183C148.672 175.632 158.203 174.79 163.558 169.468 168.912 164.146 169.761 154.675 164.405 149.355z" id="path-2" class="cls-4" fill-rule="evenodd"/><path d="M66.601 93.416S64.71 95.295 64.71 95.295s50.795 60.356 50.795 60.356S122.365 148.832 122.365 148.832 66.601 93.416 66.601 93.416z" id="path-3" class="cls-5" fill-rule="evenodd"/><path d="M164.405 149.42S64.783 50.421 64.783 50.421c-3.391-3.369-8.45-4.253-13.069-3.108l92.81 92.229C149.879 144.865 149.03 154.335 143.676 159.656 141.712 161.609 139.18 162.944 136.504 163.607L143.318 170.377C148.672 175.7 158.203 174.857 163.558 169.535 168.912 164.213 169.761 154.743 164.405 149.42z" id="path-4" class="cls-6" fill-rule="evenodd"/><path d="M202.919 70.343C220.275 53.095 218.506 23.85 198.672 8.363c-11.81-9.223-28.144-10.816-41.941-4.91-18.693 8.003-25.896 26.173-24.046 42.572C133.728 55.272 129.982 64.424 123.362 71.004L104.428 89.818s21.088 20.956 21.088 20.956 19.392-19.269 19.392-19.269C151.601 84.853 160.932 81.973 170.376 82.594 181.859 83.347 193.897 79.307 202.919 70.343z" id="path-5" class="cls-7" fill-rule="evenodd"/><path d="M150.721 35.218C150.051 35.218 149.369 35.092 148.707 34.827c-2.779-1.114-4.131-4.269-3.017-7.048C149.918 17.218 159.355 9.846 170.318 8.538 173.297 8.189 175.99 10.305 176.342 13.28 176.698 16.254 174.574 18.951 171.602 19.306 164.687 20.131 158.469 25.038 155.757 31.81 154.908 33.928 152.873 35.218 150.721 35.218z" id="path-6" class="cls-8" fill-rule="evenodd"/><path d="M198.673 8.363C192.974 3.913 186.215 1.283 179.204.369 180.782 1.274 182.308 2.288 183.762 3.424c19.833 15.486 21.602 44.732 4.245 61.98C178.987 74.369 166.948 78.409 155.464 77.654 146.02 77.033 136.689 79.913 129.996 86.566l-14.421 14.33s9.941 9.878 9.941 9.878 19.392-19.269 19.392-19.269C151.6 84.853 160.932 81.973 170.377 82.594 181.859 83.348 193.898 79.307 202.919 70.343 220.275 53.095 218.506 23.849 198.673 8.363z" id="path-7" class="cls-6" fill-rule="evenodd"/></g></svg>

<svg xmlns="http://www.w3.org/2000/svg" xmlns:xlink="http://www.w3.org/1999/xlink" preserveAspectRatio="xMidYMid" width="215" height="217" viewBox="0 0 215 217">
  <defs>
    <style>

      .cls-3 {
        fill: #142a3b;
      }

      .cls-4 {
        fill: #ff3a2f;
      }

      .cls-5 {
        fill: #010101;
        opacity: 0.45;
      }

      .cls-6 {
        fill: #010101;
        opacity: 0.35;
      }

      .cls-7 {
        fill: #2476ff;
      }

      .cls-8 {
        fill: #ffffff;
      }
    </style>
  </defs>
  <g id="group-89svg">
    <path d="M49.826,216.824 C37.099,216.826 24.378,212.014 14.692,202.390 C5.209,192.964 -0.015,180.411 -0.015,167.042 C-0.014,153.843 5.114,141.476 14.425,132.223 C24.985,121.731 36.061,116.863 48.296,117.436 C48.296,117.436 60.557,105.251 60.557,105.251 C61.972,103.843 64.258,103.850 65.670,105.267 C67.076,106.683 67.069,108.971 65.655,110.377 C65.655,110.377 51.047,124.892 51.047,124.892 C51.047,124.892 49.379,124.750 49.379,124.750 C38.726,123.836 28.968,127.962 19.522,137.352 C11.585,145.237 7.215,155.782 7.213,167.042 C7.213,178.472 11.679,189.204 19.789,197.262 C36.356,213.723 63.325,213.716 79.903,197.239 C88.975,188.224 93.273,177.527 92.331,166.304 C92.331,166.304 92.190,164.626 92.190,164.626 C92.190,164.626 106.247,150.656 106.247,150.656 C107.663,149.248 109.948,149.254 111.360,150.673 C112.767,152.089 112.760,154.377 111.344,155.783 C111.344,155.783 99.645,167.408 99.645,167.408 C100.224,180.195 95.183,192.249 85.001,202.368 C75.302,212.006 62.562,216.824 49.826,216.824 Z" id="path-1" class="cls-3" fill-rule="evenodd"/>
    <path d="M164.405,149.355 C164.405,149.355 64.784,50.353 64.784,50.353 C59.428,45.033 49.898,45.874 44.544,51.197 C39.188,56.519 38.341,65.989 43.696,71.311 C43.696,71.311 65.767,93.244 65.767,93.244 C65.767,93.244 55.222,103.722 55.222,103.722 C55.222,103.722 111.458,159.606 111.458,159.606 C111.458,159.606 122.002,149.128 122.002,149.128 C122.002,149.128 143.318,170.311 143.318,170.311 C148.672,175.632 158.203,174.790 163.558,169.468 C168.912,164.146 169.761,154.675 164.405,149.355 Z" id="path-2" class="cls-4" fill-rule="evenodd"/>
    <path d="M66.601,93.416 C66.601,93.416 64.710,95.295 64.710,95.295 C64.710,95.295 115.505,155.651 115.505,155.651 C115.505,155.651 122.365,148.832 122.365,148.832 C122.365,148.832 66.601,93.416 66.601,93.416 Z" id="path-3" class="cls-5" fill-rule="evenodd"/>
    <path d="M164.405,149.420 C164.405,149.420 64.783,50.421 64.783,50.421 C61.392,47.052 56.333,46.168 51.714,47.313 C51.714,47.313 144.524,139.542 144.524,139.542 C149.879,144.865 149.030,154.335 143.676,159.656 C141.712,161.609 139.180,162.944 136.504,163.607 C136.504,163.607 143.318,170.377 143.318,170.377 C148.672,175.700 158.203,174.857 163.558,169.535 C168.912,164.213 169.761,154.743 164.405,149.420 Z" id="path-4" class="cls-6" fill-rule="evenodd"/>
    <path d="M202.919,70.343 C220.275,53.095 218.506,23.850 198.672,8.363 C186.862,-0.860 170.528,-2.453 156.731,3.453 C138.038,11.456 130.835,29.626 132.685,46.025 C133.728,55.272 129.982,64.424 123.362,71.004 C123.362,71.004 104.428,89.818 104.428,89.818 C104.428,89.818 125.516,110.774 125.516,110.774 C125.516,110.774 144.908,91.505 144.908,91.505 C151.601,84.853 160.932,81.973 170.376,82.594 C181.859,83.347 193.897,79.307 202.919,70.343 Z" id="path-5" class="cls-7" fill-rule="evenodd"/>
    <path d="M150.721,35.218 C150.051,35.218 149.369,35.092 148.707,34.827 C145.928,33.713 144.576,30.558 145.690,27.779 C149.918,17.218 159.355,9.846 170.318,8.538 C173.297,8.189 175.990,10.305 176.342,13.280 C176.698,16.254 174.574,18.951 171.602,19.306 C164.687,20.131 158.469,25.038 155.757,31.810 C154.908,33.928 152.873,35.218 150.721,35.218 Z" id="path-6" class="cls-8" fill-rule="evenodd"/>
    <path d="M198.673,8.363 C192.974,3.913 186.215,1.283 179.204,0.369 C180.782,1.274 182.308,2.288 183.762,3.424 C203.595,18.910 205.364,48.156 188.007,65.404 C178.987,74.369 166.948,78.409 155.464,77.654 C146.020,77.033 136.689,79.913 129.996,86.566 C129.996,86.566 115.575,100.896 115.575,100.896 C115.575,100.896 125.516,110.774 125.516,110.774 C125.516,110.774 144.908,91.505 144.908,91.505 C151.600,84.853 160.932,81.973 170.377,82.594 C181.859,83.348 193.898,79.307 202.919,70.343 C220.275,53.095 218.506,23.849 198.673,8.363 Z" id="path-7" class="cls-6" fill-rule="evenodd"/>
  </g>
</svg>
